icon/ir/border-inner.svg

<svg stroke-width="1.5" viewBox="0 0 24 24" fill="none" xmlns="http://www.w3.org/2000/svg" height="1em" width="1em">
  <path d="M4 20.01L4.01 19.9989" stroke="currentColor" stroke-linecap="round" stroke-linejoin="round"/>
  <path d="M4 16.01L4.01 15.9989" stroke="currentColor" stroke-linecap="round" stroke-linejoin="round"/>
  <path d="M4 8.01L4.01 7.99889" stroke="currentColor" stroke-linecap="round" stroke-linejoin="round"/>
  <path d="M4 4.01L4.01 3.99889" stroke="currentColor" stroke-linecap="round" stroke-linejoin="round"/>
  <path d="M8 4.01L8.01 3.99889" stroke="currentColor" stroke-linecap="round" stroke-linejoin="round"/>
  <path d="M16 4.01L16.01 3.99889" stroke="currentColor" stroke-linecap="round" stroke-linejoin="round"/>
  <path d="M20 4.01L20.01 3.99889" stroke="currentColor" stroke-linecap="round" stroke-linejoin="round"/>
  <path d="M20 8.01L20.01 7.99889" stroke="currentColor" stroke-linecap="round" stroke-linejoin="round"/>
  <path d="M8 20.01L8.01 19.9989" stroke="currentColor" stroke-linecap="round" stroke-linejoin="round"/>
  <path d="M16 20.01L16.01 19.9989" stroke="currentColor" stroke-linecap="round" stroke-linejoin="round"/>
  <path d="M20 20.01L20.01 19.9989" stroke="currentColor" stroke-linecap="round" stroke-linejoin="round"/>
  <path d="M20 16.01L20.01 15.9989" stroke="currentColor" stroke-linecap="round" stroke-linejoin="round"/>
  <path d="M4 12H12M20 12H12M12 12V4M12 12V20" stroke="currentColor" stroke-linecap="round" stroke-linejoin="round"/>
</svg>

<svg width="24" height="24" stroke-width="1.5" fill="none" xmlns="http://www.w3.org/2000/svg"><path d="m4 20.01.01-.011M4 16.01l.01-.011M4 8.01l.01-.011M4 4.01l.01-.011M8 4.01l.01-.011M16 4.01l.01-.011M20 4.01l.01-.011M20 8.01l.01-.011M8 20.01l.01-.011M16 20.01l.01-.011M20 20.01l.01-.011M20 16.01l.01-.011M4 12h8m8 0h-8m0 0V4m0 8v8" stroke="currentColor" stroke-linecap="round" stroke-linejoin="round"/></svg>
